X:1
T:Athole Brose
T:Athole Brose
T:Abraham MacIntosh (1769-?)
C:Abraham MacIntosh (1769-?)
L:1/8
M:4/4
K:C
V:1 treble 
V:1
 e |: c>A A/A/A EAAB | c>A A/A/A d/e/f ed | c>A A/A/A EAAc | B/c/d Gd gdBd :| %5
[K:A] c>A A/A/A E>AA>d | c>A A/A/A{g} a>e f>d | c>A A/A/A E>AA>c | (B/c/d) =G>f{f} =g>dB<d :| %9
[K:Amin] E<(aa>)g a>ba>g | e<(aa>)b c'>ab>^g | a>bc'a bgaf |{G,DB} g>ed<g B<Gd>B :| %13

